packages/core/src/svgs/tokens/mono/MVD.svg

<svg width="24" height="24" viewBox="0 0 24 24" fill="none" xmlns="http://www.w3.org/2000/svg">
<path d="M2 7L11.9999 16.9999V22L2 11.9999V7Z" fill="white"/>
<path d="M2 11.9999L6.99997 6.99997V2L2 6.99997V11.9999Z" fill="white"/>
<path d="M4.49998 9.50005L2 11.9999V7L4.49998 9.50005Z" fill="white"/>
<path d="M12 11.9999L7 6.99997V2L12 7.08747V11.9999Z" fill="white"/>
<path d="M22 7L12 16.9999V22L22 11.9999V7Z" fill="white"/>
<path d="M21.999 11.9999L16.999 6.99997V2L21.999 6.99997V11.9999Z" fill="white"/>
<path d="M19.5 9.50005L22 11.9999V7L19.5 9.50005Z" fill="white"/>
<path d="M12 11.9999L17 6.99997V2L12 7.08747V11.9999Z" fill="white"/>
</svg>

<svg xmlns="http://www.w3.org/2000/svg" width="24" height="24" fill="none" viewBox="0 0 24 24">
    <path fill="#fff" d="m2 7 10 10v5L2 12z"/>
    <path fill="#fff" d="m2 12 5-5V2L2 7z"/>
    <path fill="#fff" d="M4.5 9.5 2 12V7zM12 12 7 7V2l5 5.087zm10-5L12 17v5l10-10z"/>
    <path fill="#fff" d="m21.999 12-5-5V2l5 5z"/>
    <path fill="#fff" d="M19.5 9.5 22 12V7zM12 12l5-5V2l-5 5.087z"/>
</svg>
